X: 20962
T: McPherson's Farewell
%R: air + march, reel
B: James Oswald "The Caledonian Pocket Companion" v.2 p.96 #2 and p.97 #1
Z: 2019 John Chambers <jc:trillian.mit.edu>
M: 2/4
L: 1/16
K: G
"_Slow"E2 |\
G3AG2B2 | TA2G2A2B2 | G3AF3G | E4 E2(DE) |\
G3AG2B2 | TA2G2A2B2 | G2G2 AGFE | D4 D2 :|
|: (ge) |\
d2G2 (Bc)(dB) | f2A2 A2(ge) | d2G2 dBAG | E4 E2ge |\
d2G2 (Bd)(dB) | (ge)(dB) A2B2 | G2G2 AGFE | D4 D2 :|
|: de |\
g3a g2(3(gab) | a2g2a2b2 | gbag fagf | e4- e2(3(def) |\
g3ag2b2 | Ta2g2a2b2 | g2g2 agfe | d4 d2 :|
|: (ge) |\
(dB) G4 (AB) | d2(BA) A2(ge) | d3B TAGAB | E4 E2(ge) |\
d(BTAG) d(BTAG) | g(edB) A2B2 | G2G2 (AG)(FE) | D4 HD2 :|
|:[M:C] "_Brisk"E2 |\
G3AG2B2 AAA2 A2B2 | G2A2G2d2 EEE2 E4 | G3AG2B2 A2G2A2B2 | G2A2F2E2 DDD2 D2 :|
|: g2 |\
d2G2 (BcdB) e2A2A2g2 | e2G2 (Bcd)B e2E2E2g2 | d2G2 (BcdB) (edcB) A2B2 | G2A2F2E2 DDD2 D2 :|
|:f2 |\
g3ag2b2 aaa2 a2b2 | g3af3g eee2 e2f2 | g3ag2b2 aaa2 a2b2 | g2a2f2e2 ddd2 d2 :|
|: g2 |\
B2G2 d2B2 e2c2A2g2 | B2G2d2B2 e2G2E2g2 | B2G2 d2B2 edcB A2B2 | G2A2F2E2 DDD2 D2 :|
%%text End with the Slow part
